X:1
T:Colombia, 87.87 D
T:Colombia, 87.87 D
T:Daniel Brink Towner, 1899
T:Public Domain Courtesy of the Cyber Hymnal™
C:Daniel Brink Towner, 1899
Z:Public Domain
Z:Courtesy of the Cyber Hymnal™
%%score ( 1 2 ) ( 3 4 )
L:1/8
Q:1/4=99
M:6/8
K:Bb
V:1 treble 
V:2 treble 
V:3 bass 
V:4 bass 
V:1
 [DF]2 [B,D] [Fd]2 [Ec] | ([DB][FA])[EG] [DF]2 [B,D] | [DF]2 [FB] [EG]2 [Ec] | (AG)[EA] [DB]3 | %4
 [DF]2 [B,D] [Fd]2 [Ec] | ([DB][FA])[EG] [DF]2 [B,D] | [DF]2 [FB] [EG]2 [Ec] | (AG)[EA] [DB]3 | %8
 [Ec]2 [DB] [CA]2 [EG] | ([DF][EG])[CE] [B,D] [DF]2 | [Ec]2 [DB] ([CA][Fc])[=EB] | [=EA]2 [EG] F3 | %12
 [DF]2 [B,D] [Fd]2 [Ec] | ([DB][FA])[EG] [DF]2 [B,D] | [DF]2 [FB] [EG]2 [Ec] | (AG)[EA] [DB]3 |] %16
V:2
 x6 | x6 | x6 | E2 x4 | x6 | x6 | x6 | E2 x4 | x6 | x6 | x6 | x3 F2 _E | x6 | x6 | x6 | E2 x4 |] %16
V:3
 [B,,B,]2 [B,,F,] [B,,B,]2 [B,,B,] | [B,,B,]2 [B,,B,] [B,,B,]2 [B,,F,] | %2
 [B,,B,]2 [D,B,] [E,B,]2 [E,G,] | F,2 F, [B,,F,]3 | [B,,B,]2 [B,,F,] [B,,B,]2 [B,,B,] | %5
 [B,,B,]2 [B,,B,] [B,,B,]2 [B,,F,] | [B,,B,]2 [D,B,] [E,B,]2 [E,G,] | F,2 F, [B,,F,]3 | %8
 [F,A,]2 [F,B,] [F,C]2 [F,A,] | [B,,B,]2 [B,,B,] [B,,F,] [B,,B,]2 | [A,,F,]2 [B,,F,] (F,A,)[C,C] | %11
 [C,C]2 [C,B,] [F,A,]3 | [B,,B,]2 [B,,F,] [B,,B,]2 [B,,B,] | [B,,B,]2 [B,,B,] [B,,B,]2 [B,,F,] | %14
 [B,,B,]2 [D,B,] [E,B,]2 [E,G,] | F,2 F, [B,,F,]3 |] %16
V:4
 x6 | x6 | x6 | F,2 F, x3 | x6 | x6 | x6 | F,2 F, x3 | x6 | x6 | x3 B,,2 x | x6 | x6 | x6 | x6 | %15
 F,2 F, x3 |] %16

